src/assets/logo-gonerus.svg

<svg xmlns="http://www.w3.org/2000/svg" xmlns:xlink="http://www.w3.org/1999/xlink" width="500" zoomAndPan="magnify" viewBox="0 0 375 374.999991" height="500" preserveAspectRatio="xMidYMid meet" version="1.0"><defs><clipPath id="eff068f3d6"><path d="M 135.523438 201.085938 L 206.394531 201.085938 L 206.394531 271.679688 L 135.523438 271.679688 Z M 135.523438 201.085938 " clip-rule="nonzero"/></clipPath><clipPath id="b1487be395"><path d="M 152.773438 201.085938 L 189.003906 201.085938 C 198.53125 201.085938 206.253906 208.808594 206.253906 218.335938 L 206.253906 254.429688 C 206.253906 263.957031 198.53125 271.679688 189.003906 271.679688 L 152.773438 271.679688 C 143.25 271.679688 135.523438 263.957031 135.523438 254.429688 L 135.523438 218.335938 C 135.523438 208.808594 143.25 201.085938 152.773438 201.085938 Z M 152.773438 201.085938 " clip-rule="nonzero"/></clipPath><clipPath id="6658e0a027"><path d="M 0.523438 0.0859375 L 71.394531 0.0859375 L 71.394531 70.679688 L 0.523438 70.679688 Z M 0.523438 0.0859375 " clip-rule="nonzero"/></clipPath><clipPath id="92ea824a0d"><path d="M 17.773438 0.0859375 L 54.003906 0.0859375 C 63.53125 0.0859375 71.253906 7.808594 71.253906 17.335938 L 71.253906 53.429688 C 71.253906 62.957031 63.53125 70.679688 54.003906 70.679688 L 17.773438 70.679688 C 8.25 70.679688 0.523438 62.957031 0.523438 53.429688 L 0.523438 17.335938 C 0.523438 7.808594 8.25 0.0859375 17.773438 0.0859375 Z M 17.773438 0.0859375 " clip-rule="nonzero"/></clipPath><clipPath id="6e9a2e0afc"><rect x="0" width="72" y="0" height="71"/></clipPath><clipPath id="072a17b490"><path d="M 135.523438 201.085938 L 206.023438 201.085938 L 206.023438 271.585938 L 135.523438 271.585938 Z M 135.523438 201.085938 " clip-rule="nonzero"/></clipPath><clipPath id="5f1ffb0eef"><path d="M 152.773438 201.085938 L 189 201.085938 C 198.527344 201.085938 206.246094 208.808594 206.246094 218.335938 L 206.246094 254.425781 C 206.246094 263.953125 198.527344 271.675781 189 271.675781 L 152.773438 271.675781 C 143.246094 271.675781 135.523438 263.953125 135.523438 254.425781 L 135.523438 218.335938 C 135.523438 208.808594 143.246094 201.085938 152.773438 201.085938 Z M 152.773438 201.085938 " clip-rule="nonzero"/></clipPath><clipPath id="86c2103d40"><path d="M 169.058594 158.863281 L 248.128906 158.863281 L 248.128906 237.625 L 169.058594 237.625 Z M 169.058594 158.863281 " clip-rule="nonzero"/></clipPath><clipPath id="4a1d38040d"><path d="M 186.308594 158.863281 L 230.761719 158.863281 C 240.289062 158.863281 248.011719 166.585938 248.011719 176.113281 L 248.011719 220.375 C 248.011719 229.902344 240.289062 237.625 230.761719 237.625 L 186.308594 237.625 C 176.78125 237.625 169.058594 229.902344 169.058594 220.375 L 169.058594 176.113281 C 169.058594 166.585938 176.78125 158.863281 186.308594 158.863281 Z M 186.308594 158.863281 " clip-rule="nonzero"/></clipPath><clipPath id="3d043b3f78"><path d="M 0.0585938 0.863281 L 79.128906 0.863281 L 79.128906 79.625 L 0.0585938 79.625 Z M 0.0585938 0.863281 " clip-rule="nonzero"/></clipPath><clipPath id="4b4a22eca7"><path d="M 17.308594 0.863281 L 61.761719 0.863281 C 71.289062 0.863281 79.011719 8.585938 79.011719 18.113281 L 79.011719 62.375 C 79.011719 71.902344 71.289062 79.625 61.761719 79.625 L 17.308594 79.625 C 7.78125 79.625 0.0585938 71.902344 0.0585938 62.375 L 0.0585938 18.113281 C 0.0585938 8.585938 7.78125 0.863281 17.308594 0.863281 Z M 17.308594 0.863281 " clip-rule="nonzero"/></clipPath><clipPath id="697bca77d4"><rect x="0" width="80" y="0" height="80"/></clipPath><clipPath id="34fc2c9233"><path d="M 169.0625 158.863281 L 247.808594 158.863281 L 247.808594 237.613281 L 169.0625 237.613281 Z M 169.0625 158.863281 " clip-rule="nonzero"/></clipPath><clipPath id="b0c1560300"><path d="M 186.308594 158.863281 L 230.757812 158.863281 C 240.28125 158.863281 248.003906 166.585938 248.003906 176.109375 L 248.003906 220.367188 C 248.003906 229.890625 240.28125 237.613281 230.757812 237.613281 L 186.308594 237.613281 C 176.785156 237.613281 169.0625 229.890625 169.0625 220.367188 L 169.0625 176.109375 C 169.0625 166.585938 176.785156 158.863281 186.308594 158.863281 Z M 186.308594 158.863281 " clip-rule="nonzero"/></clipPath><clipPath id="51c7dee27e"><path d="M 126.988281 103.320312 L 214.792969 103.320312 L 214.792969 191.46875 L 126.988281 191.46875 Z M 126.988281 103.320312 " clip-rule="nonzero"/></clipPath><clipPath id="8225b246f0"><path d="M 144.238281 103.320312 L 197.542969 103.320312 C 207.070312 103.320312 214.792969 111.042969 214.792969 120.570312 L 214.792969 174.046875 C 214.792969 183.574219 207.070312 191.296875 197.542969 191.296875 L 144.238281 191.296875 C 134.710938 191.296875 126.988281 183.574219 126.988281 174.046875 L 126.988281 120.570312 C 126.988281 111.042969 134.710938 103.320312 144.238281 103.320312 Z M 144.238281 103.320312 " clip-rule="nonzero"/></clipPath><clipPath id="5f235e648b"><path d="M 0.988281 0.320312 L 88.792969 0.320312 L 88.792969 88.46875 L 0.988281 88.46875 Z M 0.988281 0.320312 " clip-rule="nonzero"/></clipPath><clipPath id="5f3068f51a"><path d="M 18.238281 0.320312 L 71.542969 0.320312 C 81.070312 0.320312 88.792969 8.042969 88.792969 17.570312 L 88.792969 71.046875 C 88.792969 80.574219 81.070312 88.296875 71.542969 88.296875 L 18.238281 88.296875 C 8.710938 88.296875 0.988281 80.574219 0.988281 71.046875 L 0.988281 17.570312 C 0.988281 8.042969 8.710938 0.320312 18.238281 0.320312 Z M 18.238281 0.320312 " clip-rule="nonzero"/></clipPath><clipPath id="5e3ab4b317"><rect x="0" width="89" y="0" height="89"/></clipPath><clipPath id="c6ad7abcad"><path d="M 126.988281 103.324219 L 214.738281 103.324219 L 214.738281 191.070312 L 126.988281 191.070312 Z M 126.988281 103.324219 " clip-rule="nonzero"/></clipPath><clipPath id="4c9bb0bab3"><path d="M 144.238281 103.324219 L 197.535156 103.324219 C 207.0625 103.324219 214.785156 111.046875 214.785156 120.570312 L 214.785156 174.042969 C 214.785156 183.566406 207.0625 191.289062 197.535156 191.289062 L 144.238281 191.289062 C 134.710938 191.289062 126.988281 183.566406 126.988281 174.042969 L 126.988281 120.570312 C 126.988281 111.046875 134.710938 103.324219 144.238281 103.324219 Z M 144.238281 103.324219 " clip-rule="nonzero"/></clipPath></defs><rect x="-37.5" width="450" fill="#ffffff" y="-37.499999" height="449.999989" fill-opacity="1"/><rect x="-37.5" width="450" fill="#ffffff" y="-37.499999" height="449.999989" fill-opacity="1"/><g clip-path="url(#eff068f3d6)"><g clip-path="url(#b1487be395)"><g transform="matrix(1, 0, 0, 1, 135, 201)"><g clip-path="url(#6e9a2e0afc)"><g clip-path="url(#6658e0a027)"><g clip-path="url(#92ea824a0d)"><path fill="#7a9cc6" d="M 0.523438 0.0859375 L 71.121094 0.0859375 L 71.121094 70.679688 L 0.523438 70.679688 Z M 0.523438 0.0859375 " fill-opacity="1" fill-rule="nonzero"/></g></g></g></g></g></g><g clip-path="url(#072a17b490)"><g clip-path="url(#5f1ffb0eef)"><path stroke-linecap="butt" transform="matrix(0.75, 0, 0, 0.75, 135.525274, 201.087628)" fill="none" stroke-linejoin="miter" d="M 22.997553 -0.00225346 L 71.299639 -0.00225346 C 84.002765 -0.00225346 94.294433 10.294622 94.294433 22.997748 L 94.294433 71.117543 C 94.294433 83.820669 84.002765 94.117544 71.299639 94.117544 L 22.997553 94.117544 C 10.294427 94.117544 -0.00244867 83.820669 -0.00244867 71.117543 L -0.00244867 22.997748 C -0.00244867 10.294622 10.294427 -0.00225346 22.997553 -0.00225346 Z M 22.997553 -0.00225346 " stroke="#ffffff" stroke-width="4" stroke-opacity="1" stroke-miterlimit="4"/></g></g><g clip-path="url(#86c2103d40)"><g clip-path="url(#4a1d38040d)"><g transform="matrix(1, 0, 0, 1, 169, 158)"><g clip-path="url(#697bca77d4)"><g clip-path="url(#3d043b3f78)"><g clip-path="url(#4b4a22eca7)"><path fill="#3b82f6" d="M 0.0585938 0.863281 L 79.128906 0.863281 L 79.128906 79.625 L 0.0585938 79.625 Z M 0.0585938 0.863281 " fill-opacity="1" fill-rule="nonzero"/></g></g></g></g></g></g><g clip-path="url(#34fc2c9233)"><g clip-path="url(#b0c1560300)"><path stroke-linecap="butt" transform="matrix(0.75, 0, 0, 0.75, 169.061991, 158.863701)" fill="none" stroke-linejoin="miter" d="M 22.995472 -0.000559357 L 82.261101 -0.000559357 C 94.959018 -0.000559357 105.255894 10.296316 105.255894 22.994234 L 105.255894 82.004654 C 105.255894 94.702572 94.959018 104.999448 82.261101 104.999448 L 22.995472 104.999448 C 10.297554 104.999448 0.000678669 94.702572 0.000678669 82.004654 L 0.000678669 22.994234 C 0.000678669 10.296316 10.297554 -0.000559357 22.995472 -0.000559357 Z M 22.995472 -0.000559357 " stroke="#ffffff" stroke-width="4" stroke-opacity="1" stroke-miterlimit="4"/></g></g><g clip-path="url(#51c7dee27e)"><g clip-path="url(#8225b246f0)"><g transform="matrix(1, 0, 0, 1, 126, 103)"><g clip-path="url(#5e3ab4b317)"><g clip-path="url(#5f235e648b)"><g clip-path="url(#5f3068f51a)"><path fill="#0a4db8" d="M 0.988281 0.320312 L 88.792969 0.320312 L 88.792969 88.125 L 0.988281 88.125 Z M 0.988281 0.320312 " fill-opacity="1" fill-rule="nonzero"/></g></g></g></g></g></g><g clip-path="url(#c6ad7abcad)"><g clip-path="url(#4c9bb0bab3)"><path stroke-linecap="butt" transform="matrix(0.75, 0, 0, 0.75, 126.987961, 103.322624)" fill="none" stroke-linejoin="miter" d="M 23.00043 0.00212685 L 94.062939 0.00212685 C 106.766066 0.00212685 117.062942 10.299003 117.062942 22.996921 L 117.062942 94.293806 C 117.062942 106.991724 106.766066 117.2886 94.062939 117.2886 L 23.00043 117.2886 C 10.297303 117.2886 0.000427052 106.991724 0.000427052 94.293806 L 0.000427052 22.996921 C 0.000427052 10.299003 10.297303 0.00212685 23.00043 0.00212685 Z M 23.00043 0.00212685 " stroke="#ffffff" stroke-width="4" stroke-opacity="1" stroke-miterlimit="4"/></g></g></svg>

<svg xmlns="http://www.w3.org/2000/svg" width="500" height="500" viewBox="0 0 375 375">
  <defs>
    <clipPath id="a">
      <path d="M135.523 201.086h70.871v70.594h-70.871z"/>
    </clipPath>
    <clipPath id="b">
      <path d="M152.773 201.086H189c9.528 0 17.25 7.723 17.25 17.25v36.094c0 9.527-7.722 17.25-17.25 17.25h-36.227c-9.523 0-17.25-7.723-17.25-17.25v-36.094c0-9.527 7.727-17.25 17.25-17.25z"/>
    </clipPath>
    <clipPath id="c">
      <path d="M.523.086h70.872V70.68H.523z"/>
    </clipPath>
    <clipPath id="d">
      <path d="M17.773.086h36.23c9.528 0 17.25 7.723 17.25 17.25v36.094c0 9.527-7.722 17.25-17.25 17.25h-36.23c-9.523 0-17.25-7.723-17.25-17.25V17.336c0-9.527 7.727-17.25 17.25-17.25z"/>
    </clipPath>
    <clipPath id="e">
      <path d="M0 0h72v71H0z"/>
    </clipPath>
    <clipPath id="f">
      <path d="M135.523 201.086h70.5v70.5h-70.5z"/>
    </clipPath>
    <clipPath id="g">
      <path d="M152.773 201.086H189c9.528 0 17.246 7.723 17.246 17.25v36.09c0 9.526-7.718 17.25-17.246 17.25h-36.227c-9.523 0-17.25-7.724-17.25-17.25v-36.09c0-9.527 7.727-17.25 17.25-17.25z"/>
    </clipPath>
    <clipPath id="h">
      <path d="M169.059 158.863h79.07v78.762h-79.07z"/>
    </clipPath>
    <clipPath id="i">
      <path d="M186.309 158.863h44.453c9.527 0 17.25 7.723 17.25 17.25v44.262c0 9.527-7.723 17.25-17.25 17.25h-44.453c-9.528 0-17.25-7.723-17.25-17.25V176.113c0-9.527 7.722-17.25 17.25-17.25z"/>
    </clipPath>
    <clipPath id="j">
      <path d="M.059.863h79.07v78.762H.059z"/>
    </clipPath>
    <clipPath id="k">
      <path d="M17.309.863h44.453c9.527 0 17.25 7.723 17.25 17.25v44.262c0 9.527-7.723 17.25-17.25 17.25H17.309c-9.528 0-17.25-7.723-17.25-17.25V18.113c0-9.527 7.722-17.25 17.25-17.25z"/>
    </clipPath>
    <clipPath id="l">
      <path d="M0 0h80v80H0z"/>
    </clipPath>
    <clipPath id="m">
      <path d="M169.063 158.863h78.746v78.75h-78.746z"/>
    </clipPath>
    <clipPath id="n">
      <path d="M186.309 158.863h44.449c9.523 0 17.246 7.723 17.246 17.246v44.258c0 9.524-7.723 17.246-17.246 17.246h-44.449c-9.524 0-17.246-7.722-17.246-17.246v-44.258c0-9.523 7.722-17.246 17.246-17.246z"/>
    </clipPath>
    <clipPath id="o">
      <path d="M126.988 103.32h87.805v88.149h-87.805z"/>
    </clipPath>
    <clipPath id="p">
      <path d="M144.238 103.32h53.305c9.527 0 17.25 7.723 17.25 17.25v53.477c0 9.527-7.723 17.25-17.25 17.25h-53.305c-9.527 0-17.25-7.723-17.25-17.25V120.57c0-9.527 7.723-17.25 17.25-17.25z"/>
    </clipPath>
    <clipPath id="q">
      <path d="M.988.32h87.805v88.149H.988z"/>
    </clipPath>
    <clipPath id="r">
      <path d="M18.238.32h53.305c9.527 0 17.25 7.723 17.25 17.25v53.477c0 9.527-7.723 17.25-17.25 17.25H18.238c-9.527 0-17.25-7.723-17.25-17.25V17.57c0-9.527 7.723-17.25 17.25-17.25z"/>
    </clipPath>
    <clipPath id="s">
      <path d="M0 0h89v89H0z"/>
    </clipPath>
    <clipPath id="t">
      <path d="M126.988 103.324h87.75v87.746h-87.75z"/>
    </clipPath>
    <clipPath id="u">
      <path d="M144.238 103.324h53.297c9.527 0 17.25 7.723 17.25 17.246v53.473c0 9.523-7.723 17.246-17.25 17.246h-53.297c-9.527 0-17.25-7.723-17.25-17.246v-53.473c0-9.523 7.723-17.246 17.25-17.246z"/>
    </clipPath>
  </defs>
  <g clip-path="url(#a)">
    <g clip-path="url(#b)" transform="translate(135 201)">
      <g clip-path="url(#e)">
        <g clip-path="url(#c)">
          <g clip-path="url(#d)">
            <path fill="#7a9cc6" d="M.523.086h70.598v70.594H.523z"/>
          </g>
        </g>
      </g>
    </g>
  </g>
  <g clip-path="url(#f)">
    <g clip-path="url(#g)">
      <path fill="none" stroke="#fff" stroke-width="4" d="M22.998-.002h48.302c12.703 0 22.994 10.296 22.994 23v48.12C94.294 83.82 84.003 94.117 71.3 94.117H22.998c-12.704 0-22.999-10.297-22.999-23V22.998c0-12.704 10.295-22.999 22.999-22.999z" transform="scale(.75) translate(180.7 268.117)"/>
    </g>
  </g>
  <g clip-path="url(#h)">
    <g clip-path="url(#i)" transform="translate(169 158)">
      <g clip-path="url(#l)">
        <g clip-path="url(#j)">
          <g clip-path="url(#k)">
            <path fill="#3b82f6" d="M.059.863h79.07v78.762H.059z"/>
          </g>
        </g>
      </g>
    </g>
  </g>
  <g clip-path="url(#m)">
    <g clip-path="url(#n)">
      <path fill="none" stroke="#fff" stroke-width="4" d="M22.995-.001h59.266c12.698 0 22.995 10.297 22.995 22.995v59.01C105.256 94.703 94.959 105 82.261 105H22.995C10.298 105 .001 94.703.001 82.005v-59.01C.001 10.296 10.298-.001 22.995-.001z" transform="scale(.75) translate(225.416 211.818)"/>
    </g>
  </g>
  <g clip-path="url(#o)">
    <g clip-path="url(#p)" transform="translate(126 103)">
      <g clip-path="url(#s)">
        <g clip-path="url(#q)">
          <g clip-path="url(#r)">
            <path fill="#0a4db8" d="M.988.32h87.805v87.805H.988z"/>
          </g>
        </g>
      </g>
    </g>
  </g>
  <g clip-path="url(#t)">
    <g clip-path="url(#u)">
      <path fill="none" stroke="#fff" stroke-width="4" d="M23.001.002h71.062c12.703 0 23 10.297 23 22.995v71.297c0 12.698-10.297 22.995-23 22.995H23.001C10.297 117.289.001 106.992.001 94.294V22.997C.001 10.299 10.297.002 23.001.002z" transform="scale(.75) translate(169.317 137.763)"/>
    </g>
  </g>
</svg>
